X:1
T:Mozart Sonata No.16
T:Sonata No.16
T:K545
T:Wolfwang Amadeus Mozart
C:W.A. Mozart
%%score { ( 1 4 ) | ( 2 3 ) }
L:1/8
Q:1/4=120
M:4/4
K:C
V:1 treble nm="Piano" snm="Pno."
V:4 treble 
V:2 treble 
V:3 treble 
V:1
"^Allegro"!mf! (!1!c4 e2 g2 | B3 c/d/ c4) | (!3!a4 g2 c'2 | g2 Tfe/f/ e4) | %4
 (!1!AB/c/ !1!d/e/f/g/ a/g/f/e/ d/!4!c/B/A/) | (GA/B/ !1!c/d/e/f/ g/f/e/d/ c/!4!B/A/G/) | %6
 (FG/A/ B/c/d/e/ f/e/d/c/ B/A/G/F/) | (EF/G/ A/B/c/d/ e/d/c/B/ A/G/F/E/) | %8
!<(! (DE/F/ !1!G/A/B/^c/ d/A/B/c/ d/e/f/g/ | !^!!2!a/b/c'/b/ a/g/!3!f/e/ f/g/a/g/ f/e/d/!2!c/!<)! | %10
!f!"_marcato" .!1!B).g.e.c .d.g.e.c | .d2 .[Bdg]2 .G2 z2 |!mp! z8 | %13
"_dolce"!mf! (d'.b) (g3 a/b/ .a).g | (Tg>^f) f2 z4 | (d'.b) (g3 a/b/ .a).g | (Tg>^f) f2 z4 | %17
 d'2 z/ (d'/b/g/ e2) z/ (e/g/e/ | c'2) z/ (c'/a/^f/ d2) z/ (d/f/d/ | %19
 b2) z/ (b/g/e/ c2) z/ (c/e/c/ | a2) z/ (a/^f/d/ B2) z/ g/d/B/ |!<(! A4{/B} c2{/^d} e2 | %22
{/^g} a3 !4!b/4a/4!2!g/4a/4 (c'.a)(c'.a)!<)! |!f! (b.g) (d'4 c'/b/a/g/) | T!3-2!a8{!1!g!2!a} | %25
 g2 (!2!g/!1!d/g/!4!b/ d'/b/g/b/ c'/!3!a/^f/a/ | g2) (G/D/G/B/ d/B/G/B/ c/A/^F/A/ | %27
 .G2) .[db]2 .[Bg]2 z2 ::!f! G2 (g/d/g/_b/ d'/b/g/b/ c'/a/^f/a/ | %29
 g2) (G/D/G/_B/ d/B/G/B/ c/A/^F/A/ | G2) z2 z/ (!2!g/!4!_b/a/ g/f/e/d/ | %31
 ^c2) z2 z/ (!3!^c'/!5!e'/d'/ c'/_b/!1!a/!3!g/ | !2!f2) (d/A/d/f/ a/f/d/f/ g/e/^c/e/ | %33
 d2) (D/A,/D/F/ A/F/D/F/ G/E/^C/E/) | z/ (D/E/F/ !1!G/A/B/^c/ d2) z2 | %35
 z/ (B/c/d/ !1!e/^f/^g/a/ b2) z2 | z/!>(! (!1!a/!5!e'/d'/ c'/b/a/g/!>)! f2) z2 | %37
 z/!>(! (g/d'/c'/ b/a/g/f/!>)! e2) z2 | z/!>(! (f/c'/b/ a/g/f/e/!>)! d2) z2 | %39
 z/!>(! (e/b/a/ ^g/f/e/d/!>)! c2) z2 | z/ (!3!_B/!5!d/c/ B/A/G/!3!F/ !2!E/F/G/A/ B/!1!c/d/e/ | %41
!mf! (!1!f4) a2 c'2 | e3 f/g/ f4) | (d'4 c'2 f'2 | c'2 T_ba/b/ a4) | %45
 (de/f/ g/a/_b/c'/ d'/c'/b/a/ g/f/e/d/) | (cd/e/ f/g/a/_b/ c'/b/a/g/ f/!3!e/d/c/) | %47
 (!2!_Bc/d/ e/!1!f/g/a/ _b/a/g/f/ !3!e/d/c/!2!B/) | (!1!A_B/c/ d/e/f/g/ a/g/f/e/ d/c/B/A/) | %49
 a2 z2 z2 .[ca]2 | [cg]2 z2 z2 .[cg]2 | [cf]2 z2 z2 .[Bf]2 | [ce]2 z2 z2 .[ce]2 | %53
!<(! (d/D/E/F/ G/A/B/^c/ d/A/B/c/ d/e/f/g/ | !^!a/b/c'/b/ a/g/f/e/ f/g/a/g/ f/e/d/c/!<)! | %55
!f! .B).g.e.c .d.g.e.c | .d2 .[Bdg]2 .G2 z2 |!mp! z8 |!mf!"_dolce" (g.e) (c3 d/e/ .d).c | %59
 (Tc>B) B2 z4 | (g.e) (c3 d/e/ .d).c | (Tc>B) B2 z4 | g2 z/ (g/e/c/ A2) z/ (A/c/A/ | %63
 f2) z/ (f/d/B/ G2) z/ (g/b/g/ | e'2) z/ (e'/c'/a/ f2) z/ (f/a/f/ | %65
 d'2) z/ (d'/b/g/ e2) z/ c'/g/e/ |!<(! d4{/^c} d2{/c} d2 | a4{/^g} a2{/g} a2!<)! | %68
!f! (!1!ga/b/ !1!c'/d'/e'/d'/ c'/!4!b/a/g/ f/!3!e/d/c/) | Td8{cd} | %70
 c2 (c/G/c/e/ g/e/c/e/ f/d/B/d/ | c2) (C/G,/C/E/ G/E/C/E/ F/D/B,/D/ | .C2) .[egc']2 .c2 z2 :| %73
[K:G][M:3/4][Q:1/4=54]"^Andante"!mf! (B4 d/c/B/c/) | (d>B) G2 z2 |!>(! (!4!g3 a/g/ f/e/d/!3!^c/) | %76
 (d>B)!>)! G2 z2 | (c>A)!<(! (.F.A .B.c) | (d>B)!<)! g2 z2 | (!4!a/g/f/g/ f/e/!3!^d/e/ =d/c/B/c/) | %80
 (!2!B3/2c/4B/4) (A!>(!!5!d ^c=c)!>)! | (B2- B/G/B/d/ c/A/c/e/) | %82
 (d>B)!<(! (.G/.!1!G/.A/.B/ .c/.!1!d/.e/.f/)!<)! |!>(! (!4!g/f/g/f/ a/g/f/g/ f/e/d/!3!^c/) | %84
 (d/B/d/B/)!>)! G2 z2 | (!5!c/A/c/A/) .!2!F/(A/!2!^G/!1!A/ ^A/B/c/^c/) | %86
 (d/B/d/B/) g2 z/ (b/f/g/) | (^d/e/c/A/) G>G (B/A/G/A/) | !tenuto![FA]2 G2 z2 :: %89
[K:treble]!mf! (!3!d2- d/^c/e/!1!d/ !4!g/f/e/d/) | (^c>d) e2 z2 | (e2- e/^d/f/e/ a/g/f/e/) | %92
 (d>e) f2 z2 | (!2!f2- f/e/g/f/ b/a/g/f/) | (e2- e/!2!^d/!3!f/e/ !5!a/g/f/e/) | %95
 e/d/d- d/A/d/f/ f/e/d/e/ | !tenuto!!2!!4![^ce]2 (!1!d/^d/e/d/ f/e/=d/=c/) | %97
 (B2- B/G/B/d/ c/A/c/e/) | (d>B) (.G/.G/.A/.B/ .c/.d/.e/.f/) | (g/f/g/f/ a/g/f/g/ f/e/d/^c/) | %100
 (d/B/d/B/) G2 z2 | (c/A/c/A/) .F/(A/^G/A/ ^A/B/c/^c/) | (d/B/d/B/) g2 z/ (b/f/g/) | %103
 (^d/e/c/A/) G>G (B/A/G/A/) | [FA]2 G2 z2 :|!mf! (!3!_B2- B/A/c/B/) (B/A/G/!2!F/) | (G>_B) d2 z2 | %107
 (d2- d/^c/_e/d/) (d/=c/_B/A/) |!<(! (_B>d)!<)! g2 z2 | %109
!f! (=f2-!>(! f/a/c'/_b/ a/g/!1!f/!2!_e/)!>)! |!mf! (!1!d2- d/!2!g/!4!_b/a/ g/=f/!3!_e/d/) | %111
 (B/c/_e/g/) _B>B (!4!d/c/B/c/) | !tenuto!!1!!3![Ac]2!<(! (_B/A/c/B/ d/c/_e/d/)!<)! | %113
!mf! (!2!=f2- f/!4!_a/g/!1!f/ !4!_e/d/c/B/) |!<(! (c>_e) g2 z2 | %115
 (!3!g2- g/f/a/g/)!<)!!f! (_b/^c/b/c/) |!>(! (^c2!>)! d2) z2 | %117
!f! (!2!_e2-!<(! e/c/!4!a/!2!f/ !5!c'/!2!a/!5!_e'/!1!f/) | (d'2-!<)!!>(! d'/a/_b/f/ g/^c/d/_B/) | %119
 (_B/A/c/_e/) G>G (B/A/G/A/)!>)! | !tenuto![FA]2 (G/F/G/^G/ A/G/A/^A/) |!mf! (B4 d/c/B/c/) | %122
 (d>B) G2 z2 | (g3 a/g/ f/e/d/^c/) | (d>B) G2 z2 | (c>A) (.F.A .B.c) | (d>B) g2 z2 | %127
 (a/g/f/g/ f/e/^d/e/ =d/c/B/c/) | (B3/2c/4B/4) (Ad ^c=c) | (B2- B/G/B/d/ c/A/c/e/) | %130
 (d>B) (.G/.G/.A/.B/ .c/.d/.e/.f/) | (g/f/g/f/ a/g/f/g/ f/e/d/^c/) | (d/B/d/B/) G2 z2 | %133
 (c/A/c/A/) .F/(A/^G/A/ ^A/B/c/^c/) | (d/B/d/B/) g2 z/ (b/f/g/) | (^d/e/c/A/) G>G (B/A/G/A/) | %136
!<(! (G/F/A/G/ B/A/c/B/ d/c/e/d/)!<)! | (!3!=f3 g/a/ g/f/e/d/) | %138
 (!tenuto!^d2 e2) z/!>(! (!5!g/f/e/) | (!2!d/!1!B/!2!A/!5!e/) !3!G>G!>)! B/A/G/A/ | %140
!<(! (G/F/A/G/ B/A/c/B/ d/c/e/d/) | (=f3 g/a/ g/f/e/d/) | (e2 f2 g2)!<)! |!f! G3 A/4G/4F/4G/4 BA | %144
 (!2!G/D/!4!B/).!3!B/ (!2!B/G/!4!d/).!3!d/ (!4!d/B/A/!4!B/) | (G/D/B/).B/ (B/G/d/).d/ (d/B/A/B/) | %146
 .G z [B,G] z z2 |][K:C][M:2/4][Q:1/4=100]"^Allegro"!mp! .!3!!5![eg].[eg] | .[ce] z .[df].[df] | %149
 .[Bd] z (!3!c/d/e/c/ |!<(! A/B/!1!c/!2!^c/ d/e/f/d/)!<)! |!>(! (!4!c/B/A/G/)!>)! .[eg].[eg] | %152
 .[ce] z .[fa].[fa] | .[Bd] z (!4!a/g/f/e/) | (!2!^c/d/e/f/) (A/=c/B/d/) | .c z :| %156
!mf! (!2!e/^f/g/!3!g/) | (a/g/^f/e/) (.!3!d/.!2!d/.!1!d/.!3!d/) | (e/d/c/B/) (e'/d'/c'/b/) | %159
 (^g/a/b/c'/) (e/^f/=g/a/) | (g/^f/e/d/) .[bd'].[bd'] | .[gb] z .[ac'].[ac'] | %162
 .[^fa] z (g/a/b/g/) | (!2!^d/!3!e/g/e/ =d/B/c/A/ | G) z!>(! (!>!G/A/B/c/ | %165
 d)!>)! z!>(! (!>!B/c/d/e/ | f)!>)! z!>(! (!>!d/e/f/g/ | .a)._a .g.^f!>)! | %168
!p! .f z!mp! .[eg].[eg] | .[ce] z .[df].[df] | .[Bd] z (c/d/e/c/ |!<(! A/B/c/^c/ d/e/f/d/)!<)! | %172
!>(! (c/B/A/G/)!>)! .[eg].[eg] | .[ce] z .[fa].[fa] | .[Bd] z (a/g/f/e/) | %175
 (^c/d/e/f/) (A/=c/B/d/) | .c z z2 | (e/^d/f/e/) z2 | (e/^d/f/e/) .[ec'].[ec'] | %179
 .[ca] z .[db].[db] | .[B^g] z (a/e/c/A/) | %181
!<(! (!3!c/!2!_B/).!3!B/.!2!B/ (!3!d/!2!^c/).!3!c/.!2!c/ | %182
 (!3!e/!2!d/)(!3!f/!2!e/) (g/f/)(f/e/)!<)! | (e/^d/)!f! (!>!c'2 d) | e z (!5!b/!4!^g/!2!e/!1!d/) | %185
 (!2!c/!3!e/!5!a/!4!^g/ !5!a/e/c/A/) | (!2!^G/!1!B/e/^g/) (b/g/e/d/) | (c/e/a/^g/ a/e/c/A/) | %188
 !2!E z .[ce].[ce] | .[Ac] z .[Bd].[Bd] | .[^GB] z z2 | (E/^D/F/E/) z2 | %192
 (!3!e'/^d'/f'/e'/ !1!=d'/!2!^c'/!4!e'/d'/) | (d'/c'/)(c'/b/) (b/a/)(a/g/) | %194
 (g/f/)(f/e/) (e/d/)(d/c/) | (_B/f/d/B/) .A.^G |!f! A z (^G/d/B/G/) | A z!mp! (^G/d/B/G/) | %198
 A z!<(! (^G/d/B/G/) | (A/e/c/A/) (B/f/d/!<)!!f!B/) | !fermata!z2!mp! .[eg].[eg] | %201
 .[ce] z .[df].[df] | .[Bd] z (c/d/e/c/ |!<(! A/B/c/^c/ d/e/f/d/)!<)! | %204
!>(! (c/B/A/G/)!>)! .[eg].[eg] | .[ce] z .[fa].[fa] | .[Bd] z (a/g/f/e/) | %207
 (^c/d/e/f/) (A/=c/B/d/) | .c z!mf! (B/f/d/B/) | (!4!a/g/f/e/) (!2!d/!4!f/d/B/) | %210
 (!4!a/g/f/e/) (!4!d'/c'/b/a/) | (!4!a/g/).f/.e/ (!4!e/d/).c/.B/ | (!tenuto!dc) (B/!mp!f/d/B/) | %213
 (a/g/f/e/) (d/f/d/B/) | (a/g/f/e/) (d'/c'/b/a/) | (a/g/).f/.e/ (e/d/).c/.B/ | %216
!f! (!3!c/!5!e/!1!G/!5!c/ !2!E/!3!G/!1!C/!2!E/) | %217
 (!1!G/c/).!2!!3![ce]/.[eg]/ ([eg]/[df]/).[ce]/.[Bd]/ | (c/e/G/c/ E/G/C/E/) | %219
 (G/c/).[ce]/.[eg]/ ([eg]/[df]/).[ce]/.[Bd]/ |"_marcato" .c.!2!!3!!5![egc'] .[Ec].[Ec] | %221
 !tenuto![Ec]2 |] %222
V:2
 CGEG CGEG | DGFG CGEG | CAFA CGEG | B,GDG CGEG |[K:bass] .F2 z2 z2 .[F,C]2 | %5
 [E,C]2 z2 z2 .[E,C]2 | [D,C]2 z2 z2 .[D,B,]2 | [C,C]2 z2 z2 .[C,E,]2 | [F,A,]8 | %9
 (F,3 .G,) (A,3 .^F,) | (G,,/!4!B,,/D,/G,/) (G,,/!3!C,/E,/G,/) (G,,/B,,/D,/G,/) (G,,/C,/E,/G,/) | %11
 .G,,2 .G,2 .G,,2 z2 | ^C/D/C/D/ C/D/C/D/ =C/D/C/D/ C/D/C/D/ | %13
 B,/D/B,/D/ B,/D/B,/D/ B,/D/B,/D/ B,/D/B,/D/ | C/D/B,/D/ A,/D/B,/D/ C/D/B,/D/ C/D/A,/D/ | %15
 B,/D/B,/D/ B,/D/B,/D/ B,/D/B,/D/ B,/D/B,/D/ | C/D/B,/D/ A,/D/B,/D/ C/D/B,/D/ C/D/A,/D/ | %17
[K:treble] z/ (B,/D/G/ B2) z/ (C/E/G/ c2) | z/ (A,/C/^F/ A2) z/ (B,/D/F/ B2) | %19
 z/ (G,/B,/E/ G2) z/ (A,/C/E/ A2) | z/ (^F,/A,/D/ ^F2) z/ (G,/B,/D/ G2) | %21
 .[CE].[CE].[CE].[CE] .[CE].[CE].[CE].[CE] | .[CE].[CE].[CE].[CE] .[CE].[CE].[CE].[CE] | %23
 D/B/G/B/ D/B/G/B/ D/B/G/B/ D/B/G/B/ |!ped! D/c/^F/c/ D/c/F/c/ D/c/F/c/ D/c/F/c/!ped-up! | %25
 [GB]2 z2 z2 [DAc]2 | .[GB]2[K:bass] z2 z2 [D,A,C]2 | .[G,B,]2 .[G,,G,]2 .[G,,G,]2 z2 :: %28
 [G,,G,]2 z2 z2[K:treble] [DAc]2 | [G_B]2 z2 z2[K:bass] [D,A,C]2 | %30
 z/ G,,/A,,/_B,,/ C,/D,/!3!E,/^F,/ !1!G,2 z2 | z/ A,,/B,,/^C,/ D,/E,/^F,/^G,/ A,2 z2 | %32
 [D,,D,]2 z2 z2 [A,EG]2 | [DF]2 z2 z2 [A,,E,G,]2 | [D,F,]2 z2 z/ (!3!D/F/E/ D/!1!C/B,/A,/ | %35
 ^G,2) z2 z/ (G,/B,/A,/ G,/F,/E,/D,/ | C,2) z2 z/!>(! (D/A/G/ F/E/D/C/!>)! | %37
 B,2) z2 z/!>(! (C/G/F/ E/D/C/B,/!>)! | A,2) z2 z/!>(! (B,/F/E/ D/C/B,/A,/!>)! | %39
 ^G,2) z2 z/ (A,/C/B,/ A,/=G,/F,/E,/ | D,4) !tenuto![C,G,_B,]4 |[K:treble] FcAc FcAc | Gc_Bc FcAc | %43
 Fd_Bd FcAc | EcGc FcAc | ._B2 z2 z2[K:bass] .[_B,F]2 | [A,F]2 z2 z2 .[A,F]2 | %47
 [G,F]2 z2 z2 .[G,E]2 | [F,F]2 z2 z4 | (F,G,/A,/ _B,/C/!3!D/E/ F/E/!1!D/C/ B,/!1!A,/G,/F,/) | %50
 (E,F,/G,/ A,/B,/C/D/ E/D/C/B,/ !1!A,/G,/F,/E,/) | (D,E,/F,/ G,/A,/B,/C/ D/C/B,/A,/ G,/F,/E,/D,/) | %52
 (C,D,/E,/ F,/G,/A,/B,/ C/B,/A,/G,/ F,/E,/D,/C,/) | [F,A,]8 | (F,3 .G,) (A,3 .^F,) | %55
 (G,,/B,,/D,/G,/) (G,,/C,/E,/G,/) (G,,/B,,/D,/G,/) (G,,/C,/E,/G,/) | .G,,2 .G,2 .G,,2 z2 | %57
[K:treble] ^F/G/F/G/ F/G/F/G/ =F/G/F/G/ F/G/F/G/ | E/G/E/G/ E/G/E/G/ E/G/E/G/ E/G/E/G/ | %59
 F/G/E/G/ D/G/E/G/ F/G/E/G/ F/G/D/G/ | E/G/E/G/ E/G/E/G/ E/G/E/G/ E/G/E/G/ | %61
 F/G/E/G/ D/G/E/G/ F/G/E/G/ F/G/D/G/ |[K:bass] z/ (E,/G,/C/ E2) z/ (F,/A,/C/ F2) | %63
 z/ (D,/F,/B,/ D2) z/ (E,/G,/B,/ E2) |[K:treble] z/ (C/E/A/ c2) z/ (D/F/A/ d2) | %65
 z/ (B,/D/G/ B2) z/ (C/E/G/ c2) | z .[FA].[FA].[FA] .[FA].[FA].[FA].[FA] | %67
[K:bass] z .[^F,C_E].[F,CE].[F,CE] .[F,CE].[F,CE].[F,CE].[F,CE] | %68
 G,/E/C/E/ G,/E/C/E/ G,/E/C/E/ G,/E/C/E/ | %69
!ped! G,/F/B,/F/ G,/F/B,/F/ G,/F/B,/F/ G,/F/B,/F/!ped-up! | [CE]2 z2 z2 [G,DF]2 | %71
 .[CE]2[K:bass] z2 z2 [G,,D,F,]2 | .[C,E,]2 .[C,C]2 .[C,,C,]2 z2 :| %73
[K:G][M:3/4] G,/D/B,/D/ G,/D/B,/D/ A,/D/C/D/ | G,/D/B,/D/ G,/D/B,/D/ G,/D/B,/D/ | %75
 G,/E/C/E/ G,/E/C/E/ G,/^C/^A,/C/ | G,/D/B,/D/ G,/D/B,/D/ G,/D/B,/D/ | %77
 A,/D/C/D/ A,/D/C/D/ A,/D/C/D/ | G,/D/B,/D/ E,/B,/G,/B,/ B,,/G,/D,/G,/ | E,2 G,4 | G,2 F,2 z2 | %81
 G,/D/B,/D/ G,/D/B,/D/ A,/D/C/D/ | G,/D/B,/D/ G,/D/B,/D/ G,/D/B,/D/ | %83
 G,/E/C/E/ G,/E/C/E/ G,/^C/^A,/C/ | G,/D/B,/D/ G,/D/B,/D/ G,/D/B,/D/ | %85
 A,/D/C/D/ A,/D/C/D/ A,/D/C/D/ | G,/D/B,/D/ E,/B,/G,/B,/ B,,/G,/D,/G,/ | %87
 C,/A,/E,/A,/ D,/B,/G,/B,/ D,/C/A,/C/ | C2 B,2 z2 ::[K:treble] D/A/F/A/ D/A/F/A/ D/A/G/A/ | %90
 E/A/G/A/ E/A/G/A/ E/A/G/A/ | ^C/A/G/A/ C/A/G/A/ C/A/G/A/ | D/A/F/A/ ^C/A/D/A/ B,/G/D/G/ | %93
 A,/F/D/F/ G,/E/^C/E/ F,/D/A,/D/ | B,/G/E/G/ A,/F/^D/F/ G,/E/B,/E/ | %95
 A,/F/D/F/ A,/F/D/F/ A,/G/E/G/ | G2 F2 z2 |[K:bass] G,/D/B,/D/ G,/D/B,/D/ A,/D/C/D/ | %98
 G,/D/B,/D/ G,/D/B,/D/ G,/D/B,/D/ | G,/E/C/E/ G,/E/C/E/ G,/^C/^A,/C/ | %100
 G,/D/B,/D/ G,/D/B,/D/ G,/D/B,/D/ | A,/D/C/D/ A,/D/C/D/ A,/D/C/D/ | %102
 G,/D/B,/D/ E,/B,/G,/B,/ B,,/G,/D,/G,/ | C,/A,/E,/A,/ D,/B,/G,/B,/ D,/C/A,/C/ | C2 B,2 z2 :| %105
 G,/D/_B,/D/ G,/D/B,/D/ A,/D/C/D/ | G,/D/_B,/D/ G,/D/B,/D/ G,/D/B,/D/ | %107
 F,/D/A,/D/ F,/D/A,/D/ D,/D/F,/D/ | G,/D/_B,/D/ G,/D/B,/D/ G,/_E/C/E/ | %109
 A,/=F/C/F/ A,/F/C/F/ A,/F/_E/F/ | _B,/=F/D/F/ G,/D/B,/D/ D,/B,/=F,/B,/ | %111
 _E,/C/G,/C/ =F,/D/_B,/D/ F,/_E/C/E/ | _E2 D2 z2 | _A,/=F/C/F/ G,/D/B,/D/ F,/D/G,/D/ | %114
 _E,/C/G,/C/ D,/B,/=F,/B,/ C,/C/E,/C/ | ^C,/_B,/E,/B,/ D,/B,/G,/B,/ _E,/B,/G,/B,/ | %116
 D,/_B,/G,/B,/ D,/A,/F,/A,/ D,/A,/F,/A,/ | C,/A,/F,/A,/ C,/A,/F,/A,/ C,/A,/F,/A,/ | %118
 _B,,/G,/D,/G,/ B,,/G,/D,/G,/ B,,/G,/D,/G,/ | C,/A,/_E,/A,/ D,/_B,/G,/B,/ D,/C/A,/C/ | C2 _B,2 z2 | %121
 G,/D/B,/D/ G,/D/B,/D/ A,/D/C/D/ | G,/D/B,/D/ G,/D/B,/D/ G,/D/B,/D/ | %123
 G,/E/C/E/ G,/E/C/E/ G,/^C/^A,/C/ | G,/D/B,/D/ G,/D/B,/D/ G,/D/B,/D/ | %125
 A,/D/C/D/ A,/D/C/D/ A,/D/C/D/ | G,/D/B,/D/ E,/B,/G,/B,/ B,,/G,/D,/G,/ | E,2 G,4 | G,2 F,2 z2 | %129
 G,/D/B,/D/ G,/D/B,/D/ A,/D/C/D/ | G,/D/B,/D/ G,/D/B,/D/ G,/D/B,/D/ | %131
 G,/E/C/E/ G,/E/C/E/ G,/^C/^A,/C/ | G,/D/B,/D/ G,/D/B,/D/ G,/D/B,/D/ | %133
 A,/D/C/D/ A,/D/C/D/ A,/D/C/D/ | G,/D/B,/D/ E,/B,/G,/B,/ B,,/G,/D,/G,/ | %135
 C,/A,/E,/A,/ D,/B,/G,/B,/ D,/C/A,/C/ | [G,B,]2 z2 z2 | A,/=F/C/F/ A,/F/C/F/ B,/G/D/G/ | %138
 C/G/E/G/ C/G/E/G/ C/G/E/G/ | B,/D/C/E/ B,,/G,/D,/G,/ D,/C/A,/C/ | [G,B,]2 z2 z2 | %141
 A,,/=F,/C,/F,/ B,,/G,/D,/G,/ G,,/G,/B,,/G,/ | C,/G,/E,/G,/ C,/A,/_E,/A,/ ^C,/_B,/=E,/B,/ | %143
 D,/B,/G,/B,/ D,/B,/G,/B,/ D,/C/A,/C/ | [G,B,]2 z2 z ([D,C] | [G,B,]2) z2 z ([D,C] | %146
 .[G,B,]) z G,, z z2 |][K:C][M:2/4] z2 | .[A,C].[A,C] .[F,A,] z | .[G,B,].[G,B,] .[E,G,] z | %150
 (F,3 .D,) | G, z z2 | .[A,C].[A,C] .[F,A,] z | .[G,B,].[G,B,] .[E,G,] z | ([F,A,]3 .[G,F]) | %155
 .[CE].C, :| (C/G/E/G/ | B,/G/D/G/) (^F,/D/A,/D/ | G,/D/B,/D/) (B,,/G,/D,/G,/ | %159
 C,/A,/E,/A,/ ^C,/A,/E,/A,/ | D,) z z2 | .[EG].[EG] .[CE] z | .[D^F].[DF] .[B,D] z | G,3 ^F, | %164
 .G,.G,, z2 | .[G,B,].G,, z2 | .[G,B,].G,, z2 | z4 | z2 z2 | .[A,C].[A,C] .[F,A,] z | %170
 .[G,B,].[G,B,] .[E,G,] z | (F,3 .D,) | G, z z2 | .[A,C].[A,C] .[F,A,] z | %174
 .[G,B,].[G,B,] .[E,G,] z | ([F,A,]3 .[G,F]) | .[CE].C, .[CE].[CE] | .[A,C] z .[B,D].[B,D] | %178
 .[G,B,] z z2 | (E/^D/F/E/) z2 | (E/^D/F/E/) [CE]2 |[K:treble] [DF]2 [EG]2 | F^C DE | %183
 .[FA] z [FA] z |[K:bass] E,/E/^G,/E/ B,/E/G,/E/ | E,/E/A,/E/ C/E/A,/E/ | E,/E/^G,/E/ B,/E/G,/E/ | %187
 E,/E/A,/E/ C/E/A,/E/ | E, z z2 | (E/^D/F/E/) z2 | (E/^D/F/E/) .[E,C].[E,C] | %191
 .[C,A,] z .[D,B,].[D,B,] | .[B,,^G,] z [G,B,]2 | [A,C][B,D] C^C | DE FE | [DF]2 .C.B, | %196
 (A,/C/E/C/ E,/B,/D/B,/) | (A,/C/E/C/ E,/B,/D/B,/) | (A,/C/E/C/ E,/B,/D/B,/) | %199
 (A,/C/E/C/ G,/D/F/D/) | !fermata!z2 z2 | .[A,C].[A,C] .[F,A,] z | .[G,B,].[G,B,] .[E,G,] z | %203
 (F,3 .D,) | G, z z2 | .[A,C].[A,C] .[F,A,] z | .[G,B,].[G,B,] .[E,G,] z | ([F,A,]3 .[G,F]) | %208
 .[CE].C, (F,/B,/G,/B,/) | (E,/C/G,/C/) (F,/B,/G,/B,/) | (E,/C/G,/C/) (F,/D/A,/D/) | %211
 (G,/E/C/E/) (G,/F/D/F/) | (!4!C/G/E/G/) (F,/B,/G,/B,/) | (E,/C/G,/C/) (F,/B,/G,/B,/) | %214
 (E,/C/G,/C/) (F,/D/A,/D/) | (G,/E/C/E/) (G,/F/D/F/) | %216
!f! !2!C/!1!E/!4!G,/!1!C/ !4!E,/!2!G,/!5!C,/!4!E,/ | .G, z .G,, z | C/E/G,/C/ E,/G,/C,/E,/ | %219
 .G, z .G,, z | .[C,,C,].[E,,E,] .[G,,G,].[E,,E,] | !tenuto![C,,C,]2 |] %222
V:3
 x8 | x8 | x8 | x8 |[K:bass] x8 | x8 | x8 | x8 | x8 | x8 | x8 | x8 | x8 | x8 | x8 | x8 | x8 | %17
[K:treble] x8 | x8 | x8 | x8 | x8 | x8 | x8 | x8 | x8 | x2[K:bass] x6 | x8 :: x6[K:treble] x2 | %29
 x6[K:bass] x2 | x8 | x8 | x8 | x8 | x8 | x8 | x8 | x8 | x8 | x8 | x8 |[K:treble] x8 | x8 | x8 | %44
 x8 | x6[K:bass] x2 | x8 | x8 | x8 | x8 | x8 | x8 | x8 | x8 | x8 | x8 | x8 |[K:treble] x8 | x8 | %59
 x8 | x8 | x8 |[K:bass] x8 | x8 |[K:treble] x8 | x8 | x8 |[K:bass] x8 | x8 | x8 | x8 | %71
 x2[K:bass] x6 | x8 :|[K:G][M:3/4] x6 | x6 | x6 | x6 | x6 | x6 | C,4 E,2 | D,4 z2 | x6 | x6 | x6 | %84
 x6 | x6 | x6 | x6 | G,4 z2 ::[K:treble] x6 | x6 | x6 | x6 | x6 | x6 | x6 | D4 z2 |[K:bass] x6 | %98
 x6 | x6 | x6 | x6 | x6 | x6 | G,4 z2 :| x6 | x6 | x6 | x6 | x6 | x6 | x6 | _B,4 z2 | x6 | x6 | %115
 x6 | x6 | x6 | x6 | x6 | G,4 z2 | x6 | x6 | x6 | x6 | x6 | x6 | C,4 E,2 | D,4 z2 | x6 | x6 | x6 | %132
 x6 | x6 | x6 | x6 | x6 | x6 | x6 | x6 | x6 | x6 | x6 | x6 | x6 | x6 | x6 |][K:C][M:2/4] x2 | x4 | %149
 x4 | x4 | x4 | x4 | x4 | x4 | x2 :| x2 | x4 | x4 | x4 | x4 | x4 | x4 | C,2 D,2 | x4 | x4 | x4 | %167
 x4 | x4 | x4 | x4 | x4 | x4 | x4 | x4 | x4 | x4 | x4 | x4 | x4 | x4 |[K:treble] x4 | A4- | x4 | %184
[K:bass] x4 | x4 | x4 | x4 | x4 | x4 | x4 | x4 | x4 | x2 E2 | A4 | x2 E,2 | x4 | x4 | x4 | x4 | %200
 x4 | x4 | x4 | x4 | x4 | x4 | x4 | x4 | x4 | x4 | x4 | x4 | x4 | x4 | x4 | x4 | x4 | x4 | x4 | %219
 x4 | x4 | x2 |] %222
V:4
 x8 | x8 | x8 | x8 | x8 | x8 | x8 | x8 | x8 | x8 | x8 | x8 | x8 | x8 | x8 | x8 | x8 | x8 | x8 | %19
 x8 | x8 | x8 | x8 | x8 | x8 | x8 | x8 | x8 :: x8 | x8 | x8 | x8 | x8 | x8 | x8 | x8 | x8 | x8 | %38
 x8 | x8 | x8 | x8 | x8 | x8 | x8 | x8 | x8 | x8 | x8 | x8 | x8 | x8 | x8 | x8 | x8 | x8 | x8 | %57
 x8 | x8 | x8 | x8 | x8 | x8 | x8 | x8 | x8 | x8 | x8 | x8 | x8 | x8 | x8 | x8 :|[K:G][M:3/4] x6 | %74
 x6 | x6 | x6 | x6 | x6 | x6 | x6 | x6 | x6 | x6 | x6 | x6 | x6 | x4 F2 | x6 ::[K:treble] x6 | x6 | %91
 x6 | x6 | x6 | x6 | x4 ^c2 | x6 | x6 | x6 | x6 | x6 | x6 | x6 | x4 F2 | x6 :| x6 | x6 | x6 | x6 | %109
 x6 | x6 | x6 | x6 | x6 | x6 | x6 | x6 | x6 | x6 | x6 | x6 | x6 | x6 | x6 | x6 | x6 | x6 | x6 | %128
 x6 | x6 | x6 | x6 | x6 | x6 | x6 | x4 F2 | x6 | x6 | x6 | x4 F2 | x6 | x6 | x6 | x4 F2 | x6 | x6 | %146
 x6 |][K:C][M:2/4] x2 | x4 | x4 | x4 | x4 | x4 | x4 | x4 | x2 :| x2 | x4 | x4 | x4 | x4 | x4 | x4 | %163
 x4 | x4 | x4 | x4 | x4 | x4 | x4 | x4 | x4 | x4 | x4 | x4 | x4 | x4 | x4 | x4 | x4 | x4 | x4 | %182
 x4 | x4 | x4 | x4 | x4 | x4 | x4 | x4 | x4 | x4 | x4 | x4 | x4 | x4 | x4 | x4 | x4 | x4 | x4 | %201
 x4 | x4 | x4 | x4 | x4 | x4 | x4 | x4 | x4 | x4 | x4 | x4 | x4 | x4 | x4 | x4 | x4 | x4 | x4 | %220
 x4 | x2 |] %222

